public/assets/images/logo.svg

<svg width="108" height="32" viewBox="0 0 108 32" fill="none" xmlns="http://www.w3.org/2000/svg">
<path d="M94.6077 24.4187C94.5973 23.8347 94.7224 23.3237 94.9831 22.8857C95.2439 22.4373 95.5776 22.0462 95.9843 21.7125C96.4014 21.3788 96.8707 21.0972 97.3922 20.8678C97.9136 20.6279 98.4298 20.4246 98.9408 20.2577C99.5978 20.0387 100.291 19.851 101.021 19.6945C101.762 19.5381 102.481 19.4025 103.18 19.2878L103.039 14.11C103.018 13.5364 102.872 13.114 102.601 12.8429C102.341 12.5613 101.923 12.4205 101.35 12.4205C101.079 12.4205 100.834 12.4414 100.615 12.4831C100.396 12.5248 100.203 12.6083 100.036 12.7334C99.8794 12.8585 99.7543 13.0306 99.6604 13.2496C99.5665 13.4686 99.5144 13.7502 99.504 14.0943L99.3945 17.6453C99.3945 17.8435 99.3632 17.9999 99.3006 18.1146C99.2485 18.2293 99.139 18.318 98.9721 18.3805C98.8052 18.4431 98.5654 18.4848 98.2525 18.5057C97.9501 18.5265 97.5434 18.537 97.0324 18.537C96.5631 18.537 96.1824 18.5265 95.8904 18.5057C95.5984 18.4848 95.3742 18.4431 95.2178 18.3805C95.0614 18.318 94.9571 18.2293 94.9049 18.1146C94.8528 17.9999 94.8215 17.8435 94.8111 17.6453L94.6859 14.3133C94.6651 13.7606 94.7589 13.2705 94.9675 12.8429C95.1761 12.4049 95.4576 12.0295 95.8122 11.7166C96.1772 11.3933 96.5892 11.1222 97.048 10.9032C97.5173 10.6842 98.0022 10.5069 98.5028 10.3713C99.0138 10.2253 99.5196 10.1262 100.02 10.0741C100.521 10.0115 100.98 9.98022 101.397 9.98022C102.294 9.98022 103.144 10.0845 103.947 10.2931C104.76 10.4912 105.469 10.7832 106.074 11.1691C106.679 11.555 107.153 12.0295 107.498 12.5926C107.852 13.1453 108.019 13.7815 107.998 14.5011L107.513 28.0792C107.503 28.2774 107.471 28.4338 107.419 28.5485C107.378 28.6632 107.284 28.7519 107.138 28.8144C106.992 28.877 106.783 28.9187 106.512 28.9396C106.251 28.9604 105.902 28.9709 105.464 28.9709C105.057 28.9709 104.729 28.9604 104.478 28.9396C104.239 28.9187 104.051 28.877 103.915 28.8144C103.79 28.7519 103.702 28.6632 103.649 28.5485C103.608 28.4338 103.587 28.2774 103.587 28.0792L103.571 27.5317C103.29 27.7403 102.982 27.9436 102.648 28.1418C102.315 28.3295 101.96 28.5016 101.584 28.658C101.209 28.804 100.808 28.9239 100.38 29.0178C99.9628 29.1117 99.5248 29.1586 99.066 29.1586C98.336 29.1586 97.6946 29.0595 97.1419 28.8614C96.5892 28.6528 96.1251 28.3764 95.7496 28.0323C95.3846 27.6777 95.1083 27.2658 94.9206 26.7965C94.7328 26.3168 94.6338 25.8058 94.6233 25.2635L94.6077 24.4187ZM98.8939 24.7942C98.8939 25.107 98.9408 25.3782 99.0347 25.6076C99.1285 25.8266 99.2537 26.0091 99.4101 26.1551C99.5665 26.2907 99.749 26.395 99.9576 26.468C100.177 26.5306 100.411 26.5618 100.662 26.5618C101.266 26.5618 101.788 26.4628 102.226 26.2646C102.664 26.0665 103.039 25.837 103.352 25.5763L103.243 21.5561C102.68 21.6499 102.184 21.7594 101.757 21.8846C101.329 21.9993 100.948 22.1296 100.615 22.2756C100.093 22.5155 99.676 22.7814 99.3632 23.0734C99.0503 23.355 98.8939 23.7252 98.8939 24.1841V24.7942Z" fill="white"/>
<path d="M79.2208 24.4187C79.2104 23.8347 79.3355 23.3237 79.5963 22.8857C79.857 22.4373 80.1907 22.0462 80.5974 21.7125C81.0146 21.3788 81.4838 21.0972 82.0053 20.8678C82.5267 20.6279 83.0429 20.4246 83.5539 20.2577C84.211 20.0387 84.9045 19.851 85.6345 19.6945C86.3749 19.5381 87.0945 19.4025 87.7932 19.2878L87.6524 14.11C87.6316 13.5364 87.4856 13.114 87.2144 12.8429C86.9537 12.5613 86.5365 12.4205 85.963 12.4205C85.6918 12.4205 85.4468 12.4414 85.2277 12.4831C85.0087 12.5248 84.8158 12.6083 84.649 12.7334C84.4925 12.8585 84.3674 13.0306 84.2735 13.2496C84.1797 13.4686 84.1275 13.7502 84.1171 14.0943L84.0076 17.6453C84.0076 17.8435 83.9763 17.9999 83.9137 18.1146C83.8616 18.2293 83.7521 18.318 83.5852 18.3805C83.4184 18.4431 83.1785 18.4848 82.8657 18.5057C82.5632 18.5265 82.1565 18.537 81.6455 18.537C81.1762 18.537 80.7956 18.5265 80.5036 18.5057C80.2115 18.4848 79.9873 18.4431 79.8309 18.3805C79.6745 18.318 79.5702 18.2293 79.518 18.1146C79.4659 17.9999 79.4346 17.8435 79.4242 17.6453L79.299 14.3133C79.2782 13.7606 79.372 13.2705 79.5806 12.8429C79.7892 12.4049 80.0708 12.0295 80.4253 11.7166C80.7903 11.3933 81.2023 11.1222 81.6611 10.9032C82.1304 10.6842 82.6154 10.5069 83.1159 10.3713C83.6269 10.2253 84.1327 10.1262 84.6333 10.0741C85.1339 10.0115 85.5928 9.98022 86.0099 9.98022C86.9068 9.98022 87.7567 10.0845 88.5597 10.2931C89.3732 10.4912 90.0823 10.7832 90.6872 11.1691C91.292 11.555 91.7665 12.0295 92.1107 12.5926C92.4653 13.1453 92.6321 13.7815 92.6113 14.5011L92.1263 28.0792C92.1159 28.2774 92.0846 28.4338 92.0325 28.5485C91.9908 28.6632 91.8969 28.7519 91.7509 28.8144C91.6049 28.877 91.3963 28.9187 91.1252 28.9396C90.8645 28.9604 90.5151 28.9709 90.0771 28.9709C89.6704 28.9709 89.3419 28.9604 89.0916 28.9396C88.8517 28.9187 88.664 28.877 88.5284 28.8144C88.4033 28.7519 88.3146 28.6632 88.2625 28.5485C88.2208 28.4338 88.1999 28.2774 88.1999 28.0792L88.1843 27.5317C87.9027 27.7403 87.5951 27.9436 87.2613 28.1418C86.9276 28.3295 86.573 28.5016 86.1976 28.658C85.8222 28.804 85.4207 28.9239 84.9931 29.0178C84.576 29.1117 84.1379 29.1586 83.6791 29.1586C82.9491 29.1586 82.3077 29.0595 81.755 28.8614C81.2023 28.6528 80.7382 28.3764 80.3628 28.0323C79.9978 27.6777 79.7214 27.2658 79.5337 26.7965C79.346 26.3168 79.2469 25.8058 79.2365 25.2635L79.2208 24.4187ZM83.507 24.7942C83.507 25.107 83.5539 25.3782 83.6478 25.6076C83.7417 25.8266 83.8668 26.0091 84.0232 26.1551C84.1797 26.2907 84.3622 26.395 84.5707 26.468C84.7897 26.5306 85.0244 26.5618 85.2747 26.5618C85.8795 26.5618 86.401 26.4628 86.839 26.2646C87.277 26.0665 87.6524 25.837 87.9653 25.5763L87.8558 21.5561C87.2926 21.6499 86.7973 21.7594 86.3697 21.8846C85.9421 21.9993 85.5615 22.1296 85.2277 22.2756C84.7063 22.5155 84.2892 22.7814 83.9763 23.0734C83.6634 23.355 83.507 23.7252 83.507 24.1841V24.7942Z" fill="white"/>
<path d="M72 3.14423C72 2.92523 72.0208 2.74273 72.0626 2.59672C72.1147 2.44029 72.2294 2.32036 72.4067 2.23693C72.584 2.1535 72.8395 2.09615 73.1732 2.06486C73.5174 2.02315 73.971 2.00229 74.5342 2.00229C75.0973 2.00229 75.5457 2.02315 75.8795 2.06486C76.2236 2.09615 76.4843 2.1535 76.6616 2.23693C76.8389 2.32036 76.9484 2.44029 76.9901 2.59672C77.0423 2.74273 77.0683 2.92523 77.0683 3.14423L76.5834 28.0792C76.5834 28.2774 76.5573 28.4338 76.5052 28.5485C76.453 28.6632 76.354 28.7519 76.208 28.8144C76.062 28.877 75.8534 28.9187 75.5822 28.9396C75.3215 28.9604 74.9722 28.9709 74.5342 28.9709C74.0962 28.9709 73.7416 28.9604 73.4704 28.9396C73.2097 28.9187 73.0064 28.877 72.8604 28.8144C72.7248 28.7519 72.6309 28.6632 72.5788 28.5485C72.5266 28.4338 72.5006 28.2774 72.5006 28.0792L72 3.14423Z" fill="white"/>
<path d="M56.3636 14.7357C56.3323 13.9014 56.4992 13.187 56.8642 12.5926C57.2396 11.9877 57.7402 11.4924 58.3659 11.1065C59.0021 10.7207 59.7321 10.4391 60.5559 10.2618C61.3798 10.0741 62.2245 9.98022 63.0901 9.98022C63.9557 9.98022 64.8004 10.0741 65.6243 10.2618C66.4481 10.4391 67.1729 10.7207 67.7986 11.1065C68.4348 11.4924 68.9354 11.9877 69.3004 12.5926C69.6758 13.187 69.8479 13.9014 69.8166 14.7357L69.4568 24.6377C69.4255 25.4929 69.2274 26.2125 68.8624 26.7965C68.4974 27.3701 68.0229 27.8341 67.4389 28.1887C66.8549 28.5329 66.1874 28.7831 65.4366 28.9396C64.6857 29.0856 63.9087 29.1586 63.1057 29.1586C62.2923 29.1586 61.5102 29.0856 60.7593 28.9396C60.0084 28.7831 59.3358 28.5329 58.7413 28.1887C58.1573 27.8341 57.6828 27.3701 57.3178 26.7965C56.9528 26.2229 56.7547 25.5085 56.7234 24.6534L56.3636 14.7357ZM61.0096 24.7785C60.9991 25.1748 61.0304 25.5085 61.1034 25.7797C61.1869 26.0508 61.312 26.2698 61.4789 26.4367C61.6562 26.6036 61.8752 26.7235 62.1359 26.7965C62.407 26.8695 62.7251 26.906 63.0901 26.906C63.8201 26.906 64.352 26.7496 64.6857 26.4367C65.0298 26.1238 65.1915 25.5659 65.1706 24.7629L64.8578 14.4698C64.8473 14.0318 64.7952 13.6772 64.7013 13.406C64.6179 13.1349 64.498 12.9263 64.3415 12.7803C64.1851 12.6343 64.0026 12.5405 63.794 12.4988C63.5855 12.4466 63.3508 12.4205 63.0901 12.4205C62.8294 12.4205 62.5947 12.4466 62.3862 12.4988C62.1776 12.5405 61.9951 12.6343 61.8387 12.7803C61.6822 12.9263 61.5571 13.1349 61.4632 13.406C61.3798 13.6772 61.3329 14.0318 61.3224 14.4698L61.0096 24.7785Z" fill="white"/>
<path d="M38.9118 3.83252C38.9014 3.56137 38.9275 3.34237 38.99 3.17551C39.0526 3.00865 39.183 2.8783 39.3811 2.78444C39.5897 2.69058 39.8817 2.62801 40.2571 2.59672C40.6326 2.55501 41.1331 2.53415 41.7589 2.53415C42.3742 2.53415 42.8695 2.55501 43.245 2.59672C43.6204 2.62801 43.9072 2.69058 44.1053 2.78444C44.3139 2.8783 44.4495 3.00865 44.512 3.17551C44.585 3.34237 44.6163 3.56137 44.6059 3.83252L44.2774 15.2206H48.8764L48.5636 3.83252C48.5532 3.56137 48.5792 3.34237 48.6418 3.17551C48.7044 3.00865 48.8347 2.8783 49.0329 2.78444C49.2414 2.69058 49.5335 2.62801 49.9089 2.59672C50.2843 2.55501 50.7849 2.53415 51.4106 2.53415C52.0259 2.53415 52.5213 2.55501 52.8967 2.59672C53.2721 2.62801 53.5589 2.69058 53.7571 2.78444C53.9656 2.8783 54.1012 3.00865 54.1638 3.17551C54.2368 3.34237 54.2681 3.56137 54.2576 3.83252L53.5694 27.9071C53.5589 28.147 53.5276 28.3399 53.4755 28.4859C53.4338 28.6215 53.3399 28.7258 53.1939 28.7988C53.0479 28.8718 52.8341 28.9187 52.5526 28.9396C52.271 28.9604 51.8903 28.9709 51.4106 28.9709C50.9309 28.9709 50.545 28.9604 50.253 28.9396C49.9715 28.9187 49.7577 28.8718 49.6117 28.7988C49.4657 28.7258 49.3666 28.6215 49.3144 28.4859C49.2727 28.3399 49.2467 28.147 49.2362 27.9071L48.9703 18.1928H44.1992L43.9176 27.9071C43.9176 28.147 43.8915 28.3399 43.8394 28.4859C43.7977 28.6215 43.6986 28.7258 43.5422 28.7988C43.3962 28.8718 43.1824 28.9187 42.9008 28.9396C42.6192 28.9604 42.2386 28.9709 41.7589 28.9709C41.2791 28.9709 40.8933 28.9604 40.6013 28.9396C40.3197 28.9187 40.1059 28.8718 39.9599 28.7988C39.8139 28.7258 39.7148 28.6215 39.6627 28.4859C39.621 28.3399 39.5949 28.147 39.5845 27.9071L38.9118 3.83252Z" fill="white"/>
<path fill-rule="evenodd" clip-rule="evenodd" d="M25.6214 10.0758C29.9286 12.564 29.9286 18.7813 25.6214 21.2695L9.69679 30.4688C5.38774 32.9581 0 29.8484 0 24.872V6.47324C0 1.49683 5.38773 -1.61286 9.69679 0.876414L25.6214 10.0758ZM14.1497 17.4596C10.9396 17.4664 9.00696 15.0434 9.0011 11.8333C8.99524 8.62321 5.35402 5.49491 5.17468 8.69999C5.17192 8.74931 5.17052 8.79914 5.17052 8.84946L5.17052 22.4788C5.17052 24.4372 7.29361 25.6609 8.99164 24.6813L20.8039 17.8667C21.6443 17.3818 19.1773 17.4095 16.2661 17.4422C15.5729 17.45 14.8546 17.4581 14.1497 17.4596Z" fill="url(#paint0_linear_8_94)"/>
<defs>
<linearGradient id="paint0_linear_8_94" x1="0" y1="0" x2="29.2801" y2="1.07402" gradientUnits="userSpaceOnUse">
<stop stop-color="#5A0DFF"/>
<stop offset="0.395" stop-color="#FF29B8"/>
<stop offset="1" stop-color="#FF581C"/>
</linearGradient>
</defs>
</svg>

<?xml version="1.0"?>
<svg width="140" height="32" xmlns="http://www.w3.org/2000/svg" xmlns:svg="http://www.w3.org/2000/svg">
 <defs>
  <linearGradient id="paint0_linear_8_94" x1="0" x2="1.01" y1="0" y2="0.03">
   <stop stop-color="#5A0DFF"/>
   <stop offset="0.4" stop-color="#FF29B8"/>
   <stop offset="1" stop-color="#FF581C"/>
  </linearGradient>
 </defs>
 <g class="layer">
  <title>Layer 1</title>
  <path clip-rule="evenodd" d="m25.62,10.08c4.31,2.48 4.31,8.7 0,11.19l-15.92,9.2c-4.31,2.49 -9.7,-0.62 -9.7,-5.6l0,-18.4c0,-4.97 5.39,-8.08 9.7,-5.59l15.92,9.2zm-11.47,7.38c-3.21,0.01 -5.14,-2.42 -5.15,-5.63c0,-3.21 -3.65,-6.34 -3.83,-3.13c0,0.05 0,0.1 0,0.15l0,13.63c0,1.96 2.12,3.18 3.82,2.2l11.81,-6.81c0.84,-0.49 -1.62,-0.46 -4.53,-0.43c-0.7,0.01 -1.42,0.02 -2.12,0.02z" fill="url(#paint0_linear_8_94)" fill-rule="evenodd" id="svg_6"/>
  <text fill="#ffffff" font-family="Fantasy" font-size="24" id="svg_7" lengthAdjust="spacing" letter-spacing="0" stroke-width="0" text-anchor="middle" textLength="0" word-spacing="0" x="83.21" xml:space="preserve" y="24.68">Zen Medya</text>
 </g>
</svg>
